;FLAVOR:Marlin
;TIME:1884
;Filament used: 1.89146m
;Layer height: 0.2
;MINX:-12.045
;MINY:-40.605
;MINZ:0.3
;MAXX:12.043
;MAXY:40.65
;MAXZ:13.1
;Generated with Cura_SteamEngine 4.4.1
M104 S210
M105
M109 S210
M82 ;absolute extrusion mode
G28 ;Home
G1 Z15.0 F6000 ;Move the platform down 15mm
;Prime the extruder
G92 E0
G1 F200 E3
G92 E0
G92 E0
G92 E0
G1 F1500 E-6.5
;LAYER_COUNT:60
;LAYER:0
M107
G1 F600 Z1.3
G0 F3600 X-11.691 Y-0.031 Z1.3
;TYPE:SKIRT
G1 F600 Z0.3
G1 F1500 E0
G1 F1950 X-11.702 Y-0.06 E0.00232
G1 X-11.832 Y-.469 E0.03444
G1 X-11.937 Y-.912 E0.06851
G1 X-11.985 Y-1.217 E0.09161
G1 X-12.021 Y-1.683 E0.12659
G1 X-12.02 Y-17.528 E1.31236
G1 X-11.958 Y-18.136 E1.35809
G1 X-11.873 Y-18.547 E1.3895
G1 X-11.743 Y-18.989 E1.42398
G1 X-11.747 Y-18.999 E1.42478
G1 X-11.951 Y-19.69 E1.4787
G1 X-12.003 Y-19.999 E1.50215
G1 X-12.045 Y-20.498 E1.53963
G1 X-12.042 Y-36.459 E2.73407
G1 X-12.036 Y-36.651 E2.74845
G1 X-12.013 Y-37.007 E2.77515
G1 X-11.941 Y-37.492 E2.81184
G1 X-11.747 Y-38.062 E2.8569
G1 X-11.575 Y-38.438 E2.88784
G1 X-11.336 Y-38.865 E2.92446
G1 X-10.857 Y-39.417 E2.97915
G1 X-10.548 Y-39.696 E3.01031
G1 X-10.16 Y-39.993 E3.04687
G1 X-9.791 Y-40.195 E3.07836
G1 X-9.604 Y-40.281 E3.09376
G1 X-9.145 Y-40.448 E3.13031
G1 X-8.827 Y-40.517 E3.15466
G1 X-8.516 Y-40.567 E3.17823
G1 X-8.036 Y-40.605 E3.21427
G1 X8.255 Y-40.582 E4.43341
G1 X8.743 Y-40.541 E4.47006
G1 X9.218 Y-40.422 E4.5067
G1 X9.476 Y-40.32 E4.52747
G1 X9.856 Y-40.15 E4.55862
G1 X10.285 Y-39.915 E4.59523
G1 X10.67 Y-39.612 E4.63189
G1 X10.878 Y-39.4 E4.65412
G1 X11.154 Y-39.088 E4.68529
G1 X11.447 Y-38.696 E4.72191
G1 X11.641 Y-38.336 E4.75252
G1 X11.726 Y-38.148 E4.76796
G1 X11.89 Y-37.687 E4.80457
G1 X11.973 Y-37.248 E4.83801
G1 X12.024 Y-36.796 E4.87205
G1 X12.043 Y-36.46 E4.89723
G1 X12.042 Y-20.502 E6.09146
G1 X11.979 Y-19.89 E6.1375
G1 X11.893 Y-19.477 E6.16907
G1 X11.754 Y-19.008 E6.20567
G1 X11.741 Y-18.98 E6.20798
G1 X11.874 Y-18.602 E6.23797
G1 X11.935 Y-18.307 E6.26052
G1 X11.984 Y-17.996 E6.28408
G1 X12.021 Y-17.529 E6.31913
G1 X12.02 Y-1.685 E7.50482
G1 X11.984 Y-1.22 E7.53973
G1 X11.916 Y-.787 E7.57253
G1 X11.801 Y-.311 E7.60917
G1 X11.692 Y-0.032 E7.63159
G1 X11.703 Y-0.007 E7.63363
G1 X11.866 Y0.455 E7.6703
G1 X11.927 Y0.75 E7.69284
G1 X11.976 Y1.061 E7.7164
G1 X12.013 Y1.527 E7.75138
G1 X12.016 Y17.342 E8.9349
G1 X12.003 Y17.627 E8.95625
G1 X11.959 Y18.09 E8.99106
G1 X11.873 Y18.572 E9.0277
G1 X11.713 Y19.023 E9.06351
G1 X11.715 Y19.027 E9.06385
G1 X11.878 Y19.489 E9.10051
G1 X11.945 Y19.819 E9.12571
G1 X11.991 Y20.135 E9.14961
G1 X12.022 Y20.567 E9.18202
G1 X12.024 Y36.429 E10.36905
G1 X12.017 Y36.631 E10.38418
G1 X11.988 Y37.061 E10.41643
G1 X11.916 Y37.545 E10.45305
G1 X11.746 Y38.057 E10.49342
G1 X11.581 Y38.436 E10.52436
G1 X11.349 Y38.867 E10.56099
G1 X11.051 Y39.255 E10.5976
G1 X10.833 Y39.471 E10.62057
G1 X10.523 Y39.749 E10.65173
G1 X10.133 Y40.045 E10.68837
G1 X9.729 Y40.262 E10.72269
G1 X9.536 Y40.347 E10.73847
G1 X9.074 Y40.507 E10.77506
G1 X8.666 Y40.582 E10.8061
G1 X8.235 Y40.631 E10.83856
G1 X7.896 Y40.65 E10.86397
G1 X-7.906 Y40.649 E12.04652
G1 X-8.107 Y40.642 E12.06157
G1 X-8.434 Y40.62 E12.0861
G1 X-8.918 Y40.548 E12.12272
G1 X-9.47 Y40.36 E12.16635
G1 X-9.848 Y40.189 E12.1974
G1 X-10.276 Y39.952 E12.23401
G1 X-10.659 Y39.648 E12.27061
G1 X-10.848 Y39.455 E12.29082
G1 X-11.125 Y39.145 E12.32193
G1 X-11.42 Y38.755 E12.35853
G1 X-11.631 Y38.36 E12.39204
G1 X-11.716 Y38.168 E12.40775
G1 X-11.877 Y37.706 E12.44437
G1 X-11.961 Y37.227 E12.48076
G1 X-12.01 Y36.691 E12.52104
G1 X-12.022 Y36.418 E12.54149
G1 X-12.024 Y20.567 E13.7277
G1 X-11.961 Y19.957 E13.7736
G1 X-11.875 Y19.543 E13.80524
G1 X-11.737 Y19.073 E13.8419
G1 X-11.721 Y19.04 E13.84464
G1 X-11.86 Y18.633 E13.87683
G1 X-11.93 Y18.255 E13.9056
G1 X-11.996 Y17.702 E13.94727
G1 X-12.017 Y17.345 E13.97404
G1 X-12.012 Y1.532 E15.15741
G1 X-11.95 Y0.924 E15.20314
G1 X-11.864 Y0.509 E15.23486
G1 X-11.725 Y0.04 E15.27147
G1 X-11.691 Y-0.031 E15.27736
G0 F3600 X-11.341 Y0.154
G1 F1950 X-11.246 Y-0.018 E15.29206
G1 X-11.321 Y-.181 E15.30549
G1 X-11.451 Y-.59 E15.33761
G1 X-11.541 Y-.974 E15.36712
G1 X-11.589 Y-1.279 E15.39023
G1 X-11.621 Y-1.683 E15.42055
G1 X-11.62 Y-17.528 E16.60632
G1 X-11.566 Y-18.055 E16.64596
G1 X-11.481 Y-18.466 E16.67737
G1 X-11.35 Y-18.902 E16.71144
G1 X-11.305 Y-18.984 E16.71844
G1 X-11.38 Y-19.158 E16.73262
G1 X-11.557 Y-19.757 E16.77936
G1 X-11.609 Y-20.066 E16.80281
G1 X-11.645 Y-20.497 E16.83518
G1 X-11.642 Y-36.458 E18.02963
G1 X-11.637 Y-36.626 E18.0422
G1 X-11.614 Y-36.982 E18.0689
G1 X-11.544 Y-37.432 E18.10298
G1 X-11.383 Y-37.896 E18.13974
G1 X-11.211 Y-38.272 E18.17068
G1 X-10.986 Y-38.668 E18.20476
G1 X-10.589 Y-39.12 E18.24978
G1 X-10.28 Y-39.399 E18.28094
G1 X-9.917 Y-39.673 E18.31497
G1 X-9.624 Y-39.831 E18.33989
G1 X-9.437 Y-39.917 E18.35529
G1 X-9.008 Y-40.071 E18.3894
G1 X-8.764 Y-40.122 E18.40805
G1 X-8.453 Y-40.172 E18.43163
G1 X-8.036 Y-40.205 E18.46293
G1 X8.255 Y-40.182 E19.68207
G1 X8.708 Y-40.141 E19.71611
G1 X9.313 Y-39.955 E19.76348
G1 X9.693 Y-39.785 E19.79463
G1 X10.091 Y-39.564 E19.8287
G1 X10.578 Y-39.135 E19.87727
G1 X10.854 Y-38.823 E19.90844
G1 X11.125 Y-38.456 E19.94258
G1 X11.276 Y-38.171 E19.96672
G1 X11.361 Y-37.983 E19.98216
G1 X11.512 Y-37.553 E20.01626
G1 X11.576 Y-37.204 E20.04282
G1 X11.627 Y-36.752 E20.07686
G1 X11.643 Y-36.46 E20.09874
G1 X11.642 Y-20.502 E21.29296
G1 X11.587 Y-19.972 E21.33284
G1 X11.501 Y-19.559 E21.36441
G1 X11.37 Y-19.123 E21.39848
G1 X11.302 Y-19 E21.409
G1 X11.346 Y-18.901 E21.4171
G1 X11.495 Y-18.47 E21.45123
G1 X11.54 Y-18.245 E21.4684
G1 X11.589 Y-17.934 E21.49196
G1 X11.621 Y-17.529 E21.52237
G1 X11.62 Y-1.685 E22.70806
G1 X11.589 Y-1.282 E22.7383
G1 X11.521 Y-.849 E22.77111
G1 X11.411 Y-.406 E22.80526
G1 X11.32 Y-.178 E22.82364
G1 X11.254 Y-0.032 E22.83563
G1 X11.338 Y0.156 E22.85104
G1 X11.487 Y0.587 E22.88516
G1 X11.532 Y0.812 E22.90233
G1 X11.581 Y1.123 E22.9259
G1 X11.613 Y1.528 E22.9563
G1 X11.616 Y17.343 E24.13982
G1 X11.604 Y17.589 E24.15825
G1 X11.56 Y18.052 E24.19305
G1 X11.478 Y18.5 E24.22714
G1 X11.346 Y18.867 E24.25632
G1 X11.276 Y19.024 E24.26919
G1 X11.35 Y19.19 E24.28279
G1 X11.499 Y19.621 E24.31692
G1 X11.549 Y19.876 E24.33636
G1 X11.595 Y20.192 E24.36026
G1 X11.622 Y20.567 E24.3884
G1 X11.624 Y36.429 E25.57543
G1 X11.618 Y36.604 E25.58854
G1 X11.589 Y37.034 E25.62079
G1 X11.519 Y37.484 E25.65487
G1 X11.379 Y37.897 E25.68751
G1 X11.214 Y38.276 E25.71844
G1 X10.996 Y38.676 E25.75253
G1 X10.566 Y39.174 E25.80177
G1 X10.256 Y39.452 E25.83293
G1 X9.891 Y39.725 E25.86704
G1 X9.568 Y39.895 E25.89435
G1 X9.375 Y39.98 E25.91014
G1 X8.943 Y40.127 E25.94429
G1 X8.621 Y40.184 E25.96876
G1 X8.19 Y40.233 E26.00122
G1 X7.896 Y40.25 E26.02326
G1 X-7.906 Y40.249 E27.20581
G1 X-8.081 Y40.243 E27.21891
G1 X-8.408 Y40.221 E27.24344
G1 X-8.858 Y40.151 E27.27752
G1 X-9.305 Y39.996 E27.31292
G1 X-9.683 Y39.825 E27.34397
G1 X-10.08 Y39.601 E27.37808
G1 X-10.55 Y39.188 E27.4249
G1 X-10.827 Y38.878 E27.45602
G1 X-11.099 Y38.513 E27.49008
G1 X-11.265 Y38.199 E27.51666
G1 X-11.35 Y38.007 E27.53237
G1 X-11.498 Y37.575 E27.56655
G1 X-11.562 Y37.191 E27.59568
G1 X-11.611 Y36.655 E27.63596
G1 X-11.622 Y36.418 E27.65371
G1 X-11.624 Y20.567 E28.83993
G1 X-11.57 Y20.038 E28.87972
G1 X-11.484 Y19.624 E28.91137
G1 X-11.352 Y19.188 E28.94546
G1 X-11.281 Y19.06 E28.95641
G1 X-11.335 Y18.937 E28.96646
G1 X-11.48 Y18.504 E29.00064
G1 X-11.533 Y18.207 E29.02321
G1 X-11.599 Y17.654 E29.06489
G1 X-11.617 Y17.345 E29.08805
G1 X-11.612 Y1.532 E30.27142
G1 X-11.558 Y1.005 E30.31107
G1 X-11.472 Y0.59 E30.34279
G1 X-11.341 Y0.154 E30.37685
G0 F3600 X-10.957 Y0.271
G1 F1950 X-10.803 Y0.00 E30.40018
G1 X-10.94 Y-.303 E30.42507
G1 X-11.07 Y-.712 E30.45718
G1 X-11.146 Y-1.036 E30.48209
G1 X-11.194 Y-1.341 E30.50519
G1 X-11.221 Y-1.683 E30.53087
G1 X-11.22 Y-17.528 E31.71663
G1 X-11.174 Y-17.974 E31.75019
G1 X-11.089 Y-18.385 E31.78159
G1 X-10.966 Y-18.785 E31.81291
G1 X-10.856 Y-18.979 E31.8296
G1 X-10.931 Y-19.126 E31.84195
G1 X-11.013 Y-19.316 E31.85744
G1 X-11.162 Y-19.823 E31.89698
G1 X-11.214 Y-20.132 E31.92043
G1 X-11.245 Y-20.497 E31.94785
G1 X-11.242 Y-36.458 E33.14229
G1 X-11.237 Y-36.6 E33.15292
G1 X-11.214 Y-36.956 E33.17962
G1 X-11.148 Y-37.37 E33.21099
G1 X-11.02 Y-37.729 E33.23952
G1 X-10.848 Y-38.105 E33.27046
G1 X-10.638 Y-38.468 E33.30184
G1 X-10.321 Y-38.823 E33.33746
G1 X-10.012 Y-39.102 E33.36862
G1 X-9.676 Y-39.352 E33.39996
G1 X-9.457 Y-39.468 E33.4185
G1 X-9.27 Y-39.554 E33.43391
G1 X-8.7 Y-39.727 E33.47848
G1 X-8.389 Y-39.777 E33.50206
G1 X-8.037 Y-39.805 E33.52848
G1 X8.254 Y-39.782 E34.74762
G1 X8.671 Y-39.741 E34.77898
G1 X9.149 Y-39.59 E34.81649
G1 X9.529 Y-39.42 E34.84765
G1 X9.894 Y-39.213 E34.87905
G1 X10.279 Y-38.87 E34.91764
G1 X10.555 Y-38.558 E34.94881
G1 X10.801 Y-38.219 E34.98016
G1 X10.912 Y-38.006 E34.99813
G1 X10.997 Y-37.818 E35.01357
G1 X11.132 Y-37.422 E35.04488
G1 X11.178 Y-37.159 E35.06486
G1 X11.229 Y-36.707 E35.0989
G1 X11.243 Y-36.46 E35.11741
G1 X11.242 Y-20.502 E36.31164
G1 X11.196 Y-20.054 E36.34534
G1 X11.11 Y-19.641 E36.37691
G1 X10.986 Y-19.24 E36.40832
G1 X10.854 Y-19.007 E36.42836
G1 X10.897 Y-18.925 E36.43529
G1 X10.981 Y-18.737 E36.4507
G1 X11.145 Y-18.182 E36.49401
G1 X11.194 Y-17.871 E36.51757
G1 X11.221 Y-17.529 E36.54324
G1 X11.22 Y-1.685 E37.72893
G1 X11.193 Y-1.344 E37.75453
G1 X11.125 Y-.911 E37.78733
G1 X10.956 Y-.343 E37.83168
G1 X10.81 Y-0.02 E37.85821
G1 X10.889 Y0.132 E37.87103
G1 X10.973 Y0.32 E37.88644
G1 X11.137 Y0.875 E37.92974
G1 X11.186 Y1.186 E37.95331
G1 X11.213 Y1.528 E37.97898
G1 X11.216 Y17.343 E39.1625
G1 X11.206 Y17.551 E39.17808
G1 X11.162 Y18.014 E39.21289
G1 X11.083 Y18.426 E39.24428
G1 X10.98 Y18.704 E39.26647
G1 X10.832 Y19.034 E39.29353
G1 X10.901 Y19.166 E39.30468
G1 X10.985 Y19.354 E39.32009
G1 X11.153 Y19.934 E39.36528
G1 X11.199 Y20.25 E39.38917
G1 X11.222 Y20.567 E39.41296
G1 X11.224 Y36.429 E40.6
G1 X11.219 Y36.577 E40.61108
G1 X11.19 Y37.007 E40.64333
G1 X11.122 Y37.421 E40.67473
G1 X11.012 Y37.737 E40.69977
G1 X10.847 Y38.116 E40.7307
G1 X10.644 Y38.483 E40.76209
G1 X10.299 Y38.876 E40.80122
G1 X9.989 Y39.154 E40.83238
G1 X9.652 Y39.403 E40.86374
G1 X9.407 Y39.529 E40.88436
G1 X9.214 Y39.614 E40.90014
G1 X8.816 Y39.746 E40.93152
G1 X8.576 Y39.787 E40.94974
G1 X8.145 Y39.836 E40.9822
G1 X7.896 Y39.85 E41.00087
G1 X-7.906 Y39.849 E42.18341
G1 X-8.054 Y39.844 E42.1945
G1 X-8.381 Y39.822 E42.21902
G1 X-8.794 Y39.754 E42.25034
G1 X-9.14 Y39.631 E42.27783
G1 X-9.518 Y39.46 E42.30887
G1 X-9.881 Y39.252 E42.34018
G1 X-10.251 Y38.922 E42.37728
G1 X-10.528 Y38.612 E42.40839
G1 X-10.777 Y38.274 E42.43981
G1 X-10.9 Y38.037 E42.45979
G1 X-10.985 Y37.845 E42.47551
G1 X-11.117 Y37.447 E42.50689
G1 X-11.164 Y37.154 E42.52909
G1 X-11.213 Y36.618 E42.56937
G1 X-11.222 Y36.418 E42.58436
G1 X-11.224 Y20.567 E43.77057
G1 X-11.178 Y20.12 E43.8042
G1 X-11.092 Y19.706 E43.83584
G1 X-10.968 Y19.305 E43.86725
G1 X-10.834 Y19.068 E43.88763
G1 X-10.884 Y18.97 E43.89586
G1 X-10.968 Y18.777 E43.91161
G1 X-11.098 Y18.379 E43.94295
G1 X-11.135 Y18.16 E43.95957
G1 X-11.201 Y17.607 E44.00124
G1 X-11.217 Y17.345 E44.02089
G1 X-11.212 Y1.532 E45.20426
G1 X-11.166 Y1.087 E45.23774
G1 X-11.08 Y0.672 E45.26945
G1 X-10.957 Y0.271 E45.30084
G0 F3600 X-10.573 Y0.392
G1 F1950 X-10.377 Y0.053 E45.33015
G1 X-10.345 Y0.009 E45.33422
G1 X-10.404 Y-0.072 E45.34172
G1 X-10.558 Y-.424 E45.37047
G1 X-10.688 Y-.833 E45.40259
G1 X-10.751 Y-1.098 E45.42297
G1 X-10.799 Y-1.403 E45.44608
G1 X-10.821 Y-1.683 E45.4671
G1 X-10.82 Y-17.528 E46.65286
G1 X-10.783 Y-17.893 E46.68032
G1 X-10.698 Y-18.304 E46.71172
G1 X-10.582 Y-18.665 E46.7401
G1 X-10.393 Y-18.992 E46.76836
G1 X-10.473 Y-19.103 E46.7786
G1 X-10.564 Y-19.285 E46.79383
G1 X-10.646 Y-19.475 E46.80932
G1 X-10.768 Y-19.889 E46.84162
G1 X-10.82 Y-20.198 E46.86507
G1 X-10.845 Y-20.497 E46.88752
G1 X-10.842 Y-36.458 E48.08197
G1 X-10.838 Y-36.574 E48.09065
G1 X-10.815 Y-36.93 E48.11735
G1 X-10.751 Y-37.304 E48.14574
G1 X-10.656 Y-37.563 E48.16639
G1 X-10.484 Y-37.939 E48.19733
G1 X-10.291 Y-38.265 E48.22568
G1 X-10.053 Y-38.526 E48.25212
G1 X-9.744 Y-38.805 E48.28327
G1 X-9.29 Y-39.104 E48.32395
G1 X-9.103 Y-39.19 E48.33936
G1 X-8.637 Y-39.332 E48.37581
G1 X-8.326 Y-39.382 E48.39939
G1 X-8.037 Y-39.405 E48.42108
G1 X8.254 Y-39.382 E49.64022
G1 X8.63 Y-39.342 E49.66852
G1 X8.986 Y-39.225 E49.69656
G1 X9.366 Y-39.055 E49.72772
G1 X9.694 Y-38.865 E49.75608
G1 X9.979 Y-38.605 E49.78495
G1 X10.255 Y-38.293 E49.81613
G1 X10.547 Y-37.842 E49.85633
G1 X10.632 Y-37.654 E49.87177
G1 X10.781 Y-37.114 E49.9137
G1 X10.832 Y-36.662 E49.94774
G1 X10.843 Y-36.46 E49.96288
G1 X10.842 Y-20.502 E51.1571
G1 X10.804 Y-20.135 E51.18471
G1 X10.718 Y-19.722 E51.21628
G1 X10.602 Y-19.361 E51.24465
G1 X10.407 Y-19.024 E51.27379
G1 X10.383 Y-18.991 E51.27685
G1 X10.531 Y-18.762 E51.29725
G1 X10.615 Y-18.574 E51.31266
G1 X10.75 Y-18.12 E51.34811
G1 X10.799 Y-17.809 E51.37167
G1 X10.821 Y-17.529 E51.39268
G1 X10.82 Y-1.685 E52.57838
G1 X10.798 Y-1.406 E52.59932
G1 X10.73 Y-.973 E52.63212
G1 X10.591 Y-.508 E52.66844
G1 X10.42 Y-.131 E52.69942
G1 X10.338 Y0.008 E52.7115
G1 X10.523 Y0.295 E52.73705
G1 X10.607 Y0.483 E52.75246
G1 X10.742 Y0.937 E52.7879
G1 X10.791 Y1.248 E52.81147
G1 X10.813 Y1.528 E52.83248
G1 X10.816 Y17.343 E54.016
G1 X10.808 Y17.513 E54.02874
G1 X10.764 Y17.976 E54.06355
G1 X10.689 Y18.348 E54.09194
G1 X10.615 Y18.541 E54.10741
G1 X10.446 Y18.919 E54.1384
G1 X10.363 Y19.063 E54.15084
G1 X10.535 Y19.329 E54.17454
G1 X10.619 Y19.517 E54.18995
G1 X10.757 Y19.992 E54.22697
G1 X10.803 Y20.308 E54.25087
G1 X10.822 Y20.567 E54.2703
G1 X10.824 Y36.429 E55.45734
G1 X10.82 Y36.55 E55.4664
G1 X10.791 Y36.98 E55.49865
G1 X10.726 Y37.353 E55.52698
G1 X10.645 Y37.578 E55.54488
G1 X10.48 Y37.957 E55.57581
G1 X10.293 Y38.286 E55.60413
G1 X10.032 Y38.578 E55.63344
G1 X9.722 Y38.856 E55.6646
G1 X9.246 Y39.163 E55.70699
G1 X9.053 Y39.248 E55.72277
G1 X8.53 Y39.389 E55.76331
G1 X8.099 Y39.438 E55.79577
G1 X7.896 Y39.45 E55.81099
G1 X-7.906 Y39.449 E56.99354
G1 X-8.027 Y39.445 E57.0026
G1 X-8.354 Y39.423 E57.02712
G1 X-8.727 Y39.358 E57.05546
G1 X-8.975 Y39.267 E57.07523
G1 X-9.353 Y39.096 E57.10627
G1 X-9.68 Y38.904 E57.13465
G1 X-9.953 Y38.655 E57.1623
G1 X-10.23 Y38.345 E57.19341
G1 X-10.534 Y37.875 E57.2353
G1 X-10.619 Y37.683 E57.25102
G1 X-10.735 Y37.322 E57.27939
G1 X-10.766 Y37.118 E57.29483
G1 X-10.815 Y36.582 E57.33511
G1 X-10.822 Y36.418 E57.3474
G1 X-10.824 Y20.567 E58.53361
G1 X-10.786 Y20.201 E58.56115
G1 X-10.7 Y19.787 E58.59279
G1 X-10.585 Y19.426 E58.62115
G1 X-10.389 Y19.088 E58.65038
G1 X-10.373 Y19.066 E58.65242
G1 X-10.423 Y18.997 E58.6588
G1 X-10.517 Y18.81 E58.67446
G1 X-10.601 Y18.617 E58.69021
G1 X-10.738 Y18.112 E58.72937
G1 X-10.804 Y17.559 E58.77105
G1 X-10.817 Y17.345 E58.78709
G1 X-10.812 Y1.532 E59.97046
G1 X-10.775 Y1.168 E59.99784
G1 X-10.689 Y0.753 E60.02956
G1 X-10.573 Y0.392 E60.05794
G0 F3600 X-10.191 Y0.517
G1 F1950 X-10.054 Y0.289 E60.07784
G1 X-9.847 Y0.008 E60.10396
G1 X-9.884 Y-0.033 E60.10809
G1 X-10.076 Y-.306 E60.13307
G1 X-10.177 Y-.545 E60.15249
G1 X-10.307 Y-.954 E60.1846
G1 X-10.356 Y-1.16 E60.20045
G1 X-10.404 Y-1.465 E60.22355
G1 X-10.421 Y-1.683 E60.23992
G1 X-10.42 Y-17.528 E61.42568
G1 X-10.391 Y-17.812 E61.44705
G1 X-10.306 Y-18.223 E61.47846
G1 X-10.2 Y-18.539 E61.5034
G1 X-10.063 Y-18.768 E61.52337
G1 X-9.894 Y-18.998 E61.54473
G1 X-9.953 Y-19.063 E61.5513
G1 X-10.196 Y-19.443 E61.58505
G1 X-10.278 Y-19.633 E61.60054
G1 X-10.374 Y-19.956 E61.62576
G1 X-10.426 Y-20.265 E61.6492
G1 X-10.445 Y-20.497 E61.66662
G1 X-10.442 Y-36.458 E62.86107
G1 X-10.439 Y-36.548 E62.86781
G1 X-10.416 Y-36.904 E62.89451
G1 X-10.355 Y-37.233 E62.91955
G1 X-10.292 Y-37.396 E62.93262
G1 X-10.12 Y-37.772 E62.96357
G1 X-9.946 Y-38.057 E62.98856
G1 X-9.785 Y-38.229 E63.00619
G1 X-9.476 Y-38.508 E63.03734
G1 X-9.123 Y-38.741 E63.06899
G1 X-8.936 Y-38.827 E63.0844
G1 X-8.573 Y-38.937 E63.11278
G1 X-8.262 Y-38.987 E63.13636
G1 X-8.038 Y-39.005 E63.15317
G1 X8.253 Y-38.982 E64.37232
